!!!!SEGMENT: Snf0105-Beati_omnes_qui_timent_Dominum_I.krn
!!!id: Snf0105
!!!AGN: Motet
!!!SCT: Edwards, Gasch, Tröster (2021)
!!!voices: 4
!!!COM: Ludwig Senfl
!!!OTL: Beati omnes qui timent Dominum I
**kern	**text	**kern	**text	**kern	**text	**kern	**text
*part4	*part4	*part3	*part3	*part2	*part2	*part1	*part1
*staff4	*staff4	*staff3	*staff3	*staff2	*staff2	*staff1	*staff1
*I"Bassus	*	*I"Tenor	*	*I"Altus	*	*I"Superius	*
*I'B	*	*I'T	*	*I'A	*	*I'S	*
*clefF4	*	*clefGv2	*	*clefG2	*	*clefG2	*
*k[]	*	*k[]	*	*k[]	*	*k[]	*
*C:	*	*C:	*	*C:	*	*C:	*
*M2/1	*	*M2/1	*	*M2/1	*	*M2/1	*
*met(C|)	*	*met(C|)	*	*met(C|)	*	*met(C|)	*
!!section: Prima pars: Beati omnes qui timent Dominum
!!!OMD: Prima pars: Beati omnes qui timent Dominum
=1	=1	=1	=1	=1	=1	=1	=1
1r	.	0d	Be-	1r	.	0a	Be-
1D	Be-	.	.	1d	Be-	.	.
=2	=2	=2	=2	=2	=2	=2	=2
1D	-a-	0d	-a-	1f	-a-	1a	-a-
1D	-ti	.	.	1f	-ti	1a	-ti
=3	=3	=3	=3	=3	=3	=3	=3
0G	o-	1d	-ti	0g	o-	0b	o-
.	.	[1d	o-	.	.	.	.
=4	=4	=4	=4	=4	=4	=4	=4
1D	-mnes	1d]	.	1f	-mnes	1a	-mnes
1D	qui	[1d	-mnes	1f	qui	1a	qui
=5	=5	=5	=5	=5	=5	=5	=5
0G	ti-	1d]	.	0g	ti-	1b	ti-
.	.	1d	qui	.	.	[1dd	.
=6	=6	=6	=6	=6	=6	=6	=6
1.F	-ment	0f	ti-	0a	.	2dd]	.
.	.	.	.	.	.	2cc	.
.	.	.	.	.	.	[1cc	-ment
2G	.	.	.	.	.	.	.
=7	=7	=7	=7	=7	=7	=7	=7
2A	.	0e	ment	1a	-ment	1cc]	.
2B	.	.	.	.	.	.	.
2c	.	.	.	[1g	Do-	1cc	.
2C	.	.	.	.	.	.	.
=8	=8	=8	=8	=8	=8	=8	=8
1G	Do-	1d	Do-	2g]	.	1b	.
.	.	.	.	2G	.	.	.
1F	-mi-	1d	-mi-	1A	.	1a	.
=9	=9	=9	=9	=9	=9	=9	=9
1E	-num,	[0e	-num,	2B	.	2.g	Do-
.	.	.	.	2G	-mi-	.	.
.	.	.	.	.	.	4a	.
2r	.	.	.	1g	-num,	2b	.
[2C	Do-	.	.	.	.	[2cc	.
=10	=10	=10	=10	=10	=10	=10	=10
4C]	.	0e_	.	2r	.	2cc]	.
4D	.	.	.	.	.	.	.
4E	.	.	.	2.g	Do-	1b	.
4F	.	.	.	.	.	.	.
2G	.	.	.	.	.	.	.
.	.	.	.	4f	.	.	.
[2A	.	.	.	4e	.	4a	.
.	.	.	.	4d	.	4b	.
=11	=11	=11	=11	=11	=11	=11	=11
4A]	.	0e_	.	2c	.	4cc	.
4B	.	.	.	.	.	4dd	.
2.c	.	.	.	2.A	.	2.ee	.
4B	.	.	.	4B	.	4dd	.
2A	.	.	.	4c	.	2cc	.
.	.	.	.	4d	.	.	.
=12	=12	=12	=12	=12	=12	=12	=12
2G	.	0e]	.	2e	.	2b	.
2A	.	.	.	2c	.	1a	.
1E	-mi-	.	.	1B	.	.	.
.	.	.	.	.	.	2g#i	-mi-
=13	=13	=13	=13	=13	=13	=13	=13
1A	-num,	1r	.	2A	-mi-	0a	-num,
.	.	.	.	2e	-num,	.	.
2r	.	1d	qui	1f	qui	.	.
2D	qui	.	.	.	.	.	.
=14	=14	=14	=14	=14	=14	=14	=14
2G	am-	1.d	am-	2g	am-	1r	.
2G	-bu-	.	.	2g	-bu-	.	.
1D	-lant,	.	.	2.f	-lant,	2r	.
.	.	2d	-bu-	.	.	2a	qui
.	.	.	.	4g	.	.	.
=15	=15	=15	=15	=15	=15	=15	=15
1r	.	1d	-lant	1a	.	2dd	am-
.	.	.	.	.	.	2dd	-bu-
2r	.	1d	in	2r	.	2a	-lant
2G	qui	.	.	2g	qui	2b	in
=16	=16	=16	=16	=16	=16	=16	=16
2c	am-	1e	vi-	2g	am-	1cc	vi-
2c	-bu-	.	.	2g	-bu-	.	.
1G	-lant	1d	-is	1g	-lant	1b	-is
=17	=17	=17	=17	=17	=17	=17	=17
2r	.	0c	e-	2r	.	2a	e-
2C	in	.	.	2e	in	2g	-ius,
2C	vi-	.	.	1e	vi-	2r	.
2C	-is	.	.	.	.	2g	in
=18	=18	=18	=18	=18	=18	=18	=18
2.E	e-	0B	-ius.	2e	-is	2g	vi-
.	.	.	.	1g	e-	2g	-is
4F	.	.	.	.	.	.	.
1G	.	.	.	.	.	2.b	e-
.	.	.	.	2d	.	.	.
.	.	.	.	.	.	4cc	.
=19	=19	=19	=19	=19	=19	=19	=19
1D	-ius.	0A	.	1f	.	4dd	.
.	.	.	.	.	.	4a	.
.	.	.	.	.	.	1dd	.
1r	.	.	.	1e	-ius.	.	.
.	.	.	.	.	.	2cc#i	.
=20	=20	=20	=20	=20	=20	=20	=20
1r	.	1B	.	1d	.	0dd	-ius.
2r	.	1G	.	2r	.	.	.
2G	La-	.	.	2g	La-	.	.
=21	=21	=21	=21	=21	=21	=21	=21
2G	-bo-	0d	.	2g	-bo-	2r	.
2G	-res	.	.	2g	-res	2dd	La-
2B-X	ma-	.	.	2f	ma-	2dd	-bo-
2B-i	-nu-	.	.	2g	-nu-	2dd	-res
=22	=22	=22	=22	=22	=22	=22	=22
1A	-um	1r	.	1a	-um	1.cc	ma-
2F	tu-	2r	.	2A	tu-	.	.
[2G	-a-	2d	La-	[2B	-a-	2b	-nu-
=23	=23	=23	=23	=23	=23	=23	=23
2G]	.	2d	-bo-	2B]	.	2dd	-um
4F	.	2d	-res	4A	.	2dd	tu-
4E	.	.	.	4G	.	.	.
1D	.	2f	ma-	2A	.	1dd	-a-
.	.	2f	-nu-	2B	.	.	.
=24	=24	=24	=24	=24	=24	=24	=24
1C	-rum	1e	-um	2.c	-rum	1g	-rum,
.	.	.	.	4d	.	.	.
1r	.	2c	tu-	2e	.	2r	.
.	.	[2d	-a-	[2f	.	2a	la-
=25	=25	=25	=25	=25	=25	=25	=25
0r	.	2d]	.	2f]	.	2a	-bo-
.	.	4c	.	4e	.	2a	-res
.	.	4B	.	4d	.	.	.
.	.	1A	.	2e	.	2cc	ma-
.	.	.	.	2f	.	2cc	-nu-
=26	=26	=26	=26	=26	=26	=26	=26
2r	.	1G	-rum	2.g	qui-	1b	-um
1G	qui-	.	.	.	.	.	.
.	.	.	.	4f	.	.	.
.	.	1r	.	4e	.	2g	tu-
.	.	.	.	4d	.	.	.
2D	-a	.	.	[2f	-a	[2a	-a
=27	=27	=27	=27	=27	=27	=27	=27
2F	man-	0r	.	2f]	.	2a]	.
2G	-du-	.	.	4e	.	4g	.
.	.	.	.	4d	.	4f	.
1A	-ca-	.	.	1c	.	1e	.
=28	=28	=28	=28	=28	=28	=28	=28
1D	-bis	2r	.	2.d	man-	2d	rum
.	.	1d	qui-	.	.	1dd	qui-
.	.	.	.	4e	.	.	.
1r	.	.	.	2f	.	.	.
.	.	2A	-a	[2e	-du-	[2ee	-a
=29	=29	=29	=29	=29	=29	=29	=29
0r	.	2c	man-	2e]	.	2ee]	.
.	.	2d	-du-	1a	-ca-	4dd	.
.	.	.	.	.	.	4cc	.
.	.	1e	-ca-	.	.	1b	.
.	.	.	.	2g#i	.	.	.
=30	=30	=30	=30	=30	=30	=30	=30
2r	.	2A	-bis,	1a	-bis,	2a	man-
1D	qui-	1d	.	.	.	4f	-du-
.	.	.	.	.	.	4g	.
.	.	.	.	2r	.	4a	.
.	.	.	.	.	.	4b	.
2AA	-a	[2e	.	2a	man-	[2cc	.
=31	=31	=31	=31	=31	=31	=31	=31
2C	man-	2e]	.	2g	.	2cc]	.
2D	-du-	4d	.	2f	-du-	4b	.
.	.	4c	.	.	.	4a	.
1E	-ca-	1B	.	[1e	-ca-	1g	.
=32	=32	=32	=32	=32	=32	=32	=32
2.AA	-bis,	1A	.	2e]	.	1a	-ca-
.	.	.	.	2c	.	.	.
4BB	.	.	.	.	.	.	.
2.C	.	2r	.	1c	-bis,	2.e	-bis,
.	.	[2G	qui-	.	.	.	.
4D	.	.	.	.	.	4f	.
=33	=33	=33	=33	=33	=33	=33	=33
2.E	.	4G]	.	2r	.	2.g	qui-
.	.	4A	.	.	.	.	.
.	.	2.B	-a	1g	qui-	.	.
4F	.	.	.	.	.	4a	.
1G	.	.	.	.	.	2b	.
.	.	4c	.	.	.	.	.
.	.	4d	.	2d	-a	2b	-a
.	.	4B	.	.	.	.	.
=34	=34	=34	=34	=34	=34	=34	=34
2A	.	2c	man-	2f	man-	2a	man-
2B	.	2d	-du-	2g	-du-	2g	-du-
1A	.	2e	-ca-	1a	-ca-	1cc	-ca-
.	.	2f	-bis,	.	.	.	.
=35	=35	=35	=35	=35	=35	=35	=35
0G	.	2.g	man-	1d	-bis,	0b	-bis,
.	.	4f	.	.	.	.	.
.	.	4e	.	2r	.	.	.
.	.	4d	.	.	.	.	.
.	.	2e	.	2g	be-	.	.
=36	=36	=36	=36	=36	=36	=36	=36
0D	be-	4f	-du-	1a	-a-	1r	.
.	.	4e	.	.	.	.	.
.	.	4d	.	.	.	.	.
.	.	4c	.	.	.	.	.
.	.	1d	.	1f	-tus	1dd	be-
=37	=37	=37	=37	=37	=37	=37	=37
1A	-a-	1.c	-ca-	0e	es,	1ee	-a-
1A	-tus	.	.	.	.	1cc	-tus
.	.	4B	.	.	.	.	.
.	.	4A	.	.	.	.	.
=38	=38	=38	=38	=38	=38	=38	=38
1E	es,	1e	-bis,	2r	.	1b	es,
.	.	.	.	2.g	be-	.	.
2r	.	1B	.	.	.	2r	.
.	.	.	.	4f	.	.	.
2G	be-	.	.	4e	.	2b	et
.	.	.	.	4d	.	.	.
=39	=39	=39	=39	=39	=39	=39	=39
1A	-a-	1r	.	1c	-a-	2a	be-
.	.	.	.	.	.	2a	-ne
1F	-tus	1d	be-	1f	-tus	4a	ti-
.	.	.	.	.	.	4g	.
.	.	.	.	.	.	4a	.
.	.	.	.	.	.	4b	.
=40	=40	=40	=40	=40	=40	=40	=40
0E	es,	1e	-a-	1g	es,	2cc	.
.	.	.	.	.	.	2b	-bi
.	.	1c	-tus	2r	.	1ee	e-
.	.	.	.	[2g	et	.	.
=41	=41	=41	=41	=41	=41	=41	=41
0G	.	1B	es,	2g]	.	[0dd	-rit,
.	.	.	.	4f	.	.	.
.	.	.	.	4e	.	.	.
.	.	2r	.	2.d	.	.	.
.	.	2B	et	.	.	.	.
.	.	.	.	4e	.	.	.
=42	=42	=42	=42	=42	=42	=42	=42
1D	.	2A	be-	4f	be-	1dd]	.
.	.	.	.	4e	.	.	.
.	.	2A	-ne	4f	.	.	.
.	.	.	.	4g	.	.	.
2r	.	4A	ti-	1a	-ne	1cc	.
.	.	4G	.	.	.	.	.
2F	et	4A	.	.	.	.	.
.	.	4B	.	.	.	.	.
=43	=43	=43	=43	=43	=43	=43	=43
2E	be-	2c	.	2r	.	0r	.
2E	-ne	2B	-bi	2.g	ti-	.	.
4E	ti-	1e	e-	.	.	.	.
4D	.	.	.	4f	.	.	.
4E	.	.	.	4g	.	.	.
4F	.	.	.	4a	.	.	.
=44	=44	=44	=44	=44	=44	=44	=44
2G	.	0d	-rit,	2b-i	.	2r	.
2F	-bi	.	.	1a	.	2a	et
1B-i	e-	.	.	.	.	1dd	be-
.	.	.	.	2g	.	.	.
=	=	=	=	=	=	=	=
*	*	*	*	*M3/3%2	*	*	*
*	*	*	*	*met(3)	*	*	*
*	*	*	*	*Xtuplet	*	*	*
1A	-rit,	0e	.	3%2a	-bi	2.cc	-ne
.	.	.	.	3A	.	.	.
.	.	.	.	.	.	4dd	.
2r	.	.	.	3.c	.	1ee	ti-
2E	et	.	.	6B	.	.	.
.	.	.	.	3G	.	.	.
=	=	=	=	=	=	=	=
*	*	*	*	*tuplet	*	*	*
*	*	*	*	*M2/1	*	*	*
*	*	*	*	*met(C|)	*	*	*
2D	be-	2r	.	0d	e-	0a	-bi,
2D	-ne	2.f	ti-	.	.	.	.
4D	ti-	.	.	.	.	.	.
4C	.	4e	.	.	.	.	.
4D	.	4f	.	.	.	.	.
4E	.	4g	.	.	.	.	.
=45	=45	=45	=45	=45	=45	=45	=45
2F	.	2a	.	0c	-rit,	1r	.
2E	-bi	1g	.	.	.	.	.
1A	e-	.	.	.	.	1cc	et
.	.	2f#i	.	.	.	.	.
=46	=46	=46	=46	=46	=46	=46	=46
[0G	-rit.	[0g	.	2r	.	1.b	be-
.	.	.	.	2e	et	.	.
.	.	.	.	2d	be-	.	.
.	.	.	.	2d	-ne	2b	-ne
=47	=47	=47	=47	=47	=47	=47	=47
1G]	.	1g]	.	4d	ti-	1dd	ti-
.	.	.	.	4c	.	.	.
.	.	.	.	4d	.	.	.
.	.	.	.	4e	.	.	.
1A	.	1c	-bi	2f	.	2cc	-bi
.	.	.	.	2e	-bi	2ee	e-
=48	=48	=48	=48	=48	=48	=48	=48
1F	.	2.f	e-	1a	e-	2dd	.
.	.	.	.	.	.	1cc	.
.	.	4e	.	.	.	.	.
1G	.	1d	.	[1g	-rit.	.	.
.	.	.	.	.	.	2b	.
=49	=49	=49	=49	=49	=49	=49	=49
0C	.	0c	-rit.	1g]	.	0cc	-rit.
.	.	.	.	2r	.	.	.
.	.	.	.	[2g	U-	.	.
=50	=50	=50	=50	=50	=50	=50	=50
0r	.	0r	.	2g]	.	2r	.
.	.	.	.	2f	-xor	1dd	U-
.	.	.	.	1e	tu-	.	.
.	.	.	.	.	.	2cc	-xor
=51	=51	=51	=51	=51	=51	=51	=51
2r	.	1r	.	0d	-a	1b	tu-
1G	U-	.	.	.	.	.	.
.	.	2r	.	.	.	1a	-a
2F	-xor	[2d	U-	.	.	.	.
=52	=52	=52	=52	=52	=52	=52	=52
1E	tu-	2d]	.	0r	.	1r	.
.	.	2c	-xor	.	.	.	.
1D	-a	1B	tu-	.	.	2r	.
.	.	.	.	.	.	[2dd	sic-
=53	=53	=53	=53	=53	=53	=53	=53
0r	.	1A	-a	2r	.	2dd]	.
.	.	.	.	1a	sic-	2cc	-ut
.	.	1r	.	.	.	1b	vi-
.	.	.	.	2g	-ut	.	.
=54	=54	=54	=54	=54	=54	=54	=54
2r	.	1r	.	1f	vi-	2a	-tis
1d	sic-	.	.	.	.	2a	a-
.	.	2r	.	2e	-tis	2b	-bun-
2c	-ut	[2a	sic-	2e	a-	2cc	.
=55	=55	=55	=55	=55	=55	=55	=55
1B	vi-	2a]	.	2f	-bun-	1dd	-dans,
.	.	2g	-ut	2g	.	.	.
1A	-tis	2f	vi-	1a	-dans,	2r	.
.	.	[2e	-tis	.	.	[2cc	a-
=56	=56	=56	=56	=56	=56	=56	=56
1r	.	2e]	.	2A	a-	2cc]	.
.	.	2d	a-	2B	.	4b	.
.	.	.	.	.	.	4a	.
2r	.	2e	-bun-	1c	.	2g	.
2A	a-	2f	.	.	.	2cc	.
=57	=57	=57	=57	=57	=57	=57	=57
2B	-bun-	2g	.	2d	.	2b	.
2c	.	2a	.	2A	-bun-	1ee	-bun-
1d	.	1f	.	1a	-dans	.	.
.	.	.	.	.	.	2dd	.
=58	=58	=58	=58	=58	=58	=58	=58
1A	-dans	0e	-dans	2r	.	1ee	-dans
.	.	.	.	1cc	in	.	.
[1c	in	.	.	.	.	2r	.
.	.	.	.	2cc	la-	[2ee	in
=59	=59	=59	=59	=59	=59	=59	=59
2c]	.	1.g	in	2cc	-te-	2ee]	.
2c	la-	.	.	2cc	-ri-	2ee	la-
2c	-te-	.	.	2g	-bus	2ee	-te-
2c	-ri-	2g	la-	[2cc	do-	2ee	-ri-
=60	=60	=60	=60	=60	=60	=60	=60
1G	-bus	2g	-te-	2cc]	.	1dd	-bus
.	.	2g	-ri-	2b	.	.	.
[1A	do-	2e	-bus	1a	-mus	1cc	do-
.	.	[2f	do-	.	.	.	.
=61	=61	=61	=61	=61	=61	=61	=61
2A]	.	2f]	.	2f	tu-	2a	-mus
2G	-mus	2e	-mus	2g	.	2b	.
1F	tu-	2e	tu-	2a	.	2cc	.
.	.	2d	.	2A	.	2dd	tu-
=62	=62	=62	=62	=62	=62	=62	=62
1E	-ae,	1e	-ae,	2B	.	1g	-ae,
.	.	.	.	1c	-ae,	.	.
[1F	in	1r	.	.	.	[1a	in
.	.	.	.	[2f	in	.	.
=63	=63	=63	=63	=63	=63	=63	=63
2F]	.	1.c	in	2f]	.	2a]	.
2F	la-	.	.	2f	la-	2a	la-
2F	-te-	.	.	2f	-te-	2a	-te-
2F	-ri-	2c	la-	2f	-ri-	2a	-ri-
=64	=64	=64	=64	=64	=64	=64	=64
1C	-bus	2c	-te-	2e	-bus	1g	-bus
.	.	2c	-ri-	2e	do-	.	.
[1D	do-	2F	-bus	2d	-mus	1f	do-
.	.	[2f	do-	4d	tu-	.	.
.	.	.	.	4e	.	.	.
=65	=65	=65	=65	=65	=65	=65	=65
2D]	.	2f]	.	4f	.	1a	-mus
.	.	.	.	4g	.	.	.
2C	-mus	2e	-mus	1a	.	.	.
1BB	tu-	2e	tu-	.	.	1dd	tu-
.	.	2d	.	2g#i	-ae.	.	.
=	=	=	=	=	=	=	=
00AA	-ae.	00e	-ae.	00a	.	00cc	-ae.
=||	=||	=||	=||	=||	=||	=||	=||
*M2/1	*	*M2/1	*	*M2/1	*	*M2/1	*
*met(C|)	*	*met(C|)	*	*met(C|)	*	*met(C|)	*
!!section: Secunda pars: Filii tui
!!!OMD: Secunda pars: Filii tui
1.A	Fi-	1r	.	0r	.	0r	.
.	.	[1e	Fi-	.	.	.	.
2A	-li-	.	.	.	.	.	.
=66	=66	=66	=66	=66	=66	=66	=66
1E	-i	2e]	.	0r	.	0r	.
.	.	2e	-li-	.	.	.	.
1G	tu-	1B	-i	.	.	.	.
=67	=67	=67	=67	=67	=67	=67	=67
2.F	-i	1d	tu-	1.a	Fi-	1r	.
4G	.	.	.	.	.	.	.
4A	.	1c	-i	.	.	[1ee	Fi-
4G	.	.	.	.	.	.	.
4A	.	.	.	2a	-li-	.	.
4B	.	.	.	.	.	.	.
=68	=68	=68	=68	=68	=68	=68	=68
2.c	.	0r	.	1e	-i	2ee]	.
.	.	.	.	.	.	2ee	-li-
8BL	.	.	.	.	.	.	.
8AJ	.	.	.	.	.	.	.
1G	.	.	.	1g	tu-	1b	-i
=69	=69	=69	=69	=69	=69	=69	=69
1D	.	0r	.	0f	-i	1dd	tu-
2r	.	.	.	.	.	[1cc	-i
2F	sic-	.	.	.	.	.	.
=70	=70	=70	=70	=70	=70	=70	=70
2F	-ut	2r	.	0r	.	1cc]	.
2C	no-	2c	sic-	.	.	.	.
1E	-vel-	2c	-ut	.	.	1r	.
.	.	2G	no-	.	.	.	.
=71	=71	=71	=71	=71	=71	=71	=71
1D	-lae	1B	-vel-	2r	.	1r	.
.	.	.	.	2f	sic-	.	.
1F	o-	1A	-lae	2f	-ut	2r	.
.	.	.	.	2c	no-	2cc	sic-
=72	=72	=72	=72	=72	=72	=72	=72
1C	-li-	1c	o-	1e	-vel-	2cc	-ut
.	.	.	.	.	.	2g	no-
1G	-va-	1G	-li-	1d	-lae	1b	-vel-
=73	=73	=73	=73	=73	=73	=73	=73
2.D	-rum,	1d	-va-	2r	.	1a	-lae
.	.	.	.	1f	o-	.	.
4E	.	.	.	.	.	.	.
4F	.	1A	-rum,	.	.	2r	.
4G	.	.	.	.	.	.	.
2A	.	.	.	[2c	-li-	2cc	o-
=74	=74	=74	=74	=74	=74	=74	=74
2.F	o-	2c	o-	2c]	.	2a	-li-
.	.	2A	-li-	1f	-va-	2.cc	-va-
4G	.	.	.	.	.	.	.
4A	.	2.c	-va-	.	.	.	.
4B	.	.	.	.	.	4dd	.
[2c	.	.	.	[2e	.	4ee	.
.	.	4d	.	.	.	4ff	.
=75	=75	=75	=75	=75	=75	=75	=75
2c]	.	1e	.	4e]	.	1gg	.
.	.	.	.	4f	.	.	.
2C	.	.	.	2g	.	.	.
2AA	.	2.c	.	2a	.	2ff	.
[2C	.	.	.	[2g	.	[2ee	.
.	.	4d	.	.	.	.	.
=76	=76	=76	=76	=76	=76	=76	=76
4C]	.	4e	.	4g]	.	4ee]	.
4D	.	4f	.	4f	.	4dd	.
4E	.	2.g	.	2e	.	2cc	.
4F	.	.	.	.	.	.	.
2G	.	.	.	2d	.	2b	.
.	.	4f	.	.	.	.	.
2A	.	2e	.	2c	-rum,	2a	.
=77	=77	=77	=77	=77	=77	=77	=77
2B	.	2d	.	2r	.	2dd	.
1c	.	2c	.	2g	o-	2.ee	.
.	.	2A	.	2a	-li-	.	.
.	.	.	.	.	.	4cc	.
2F	-li-	2a	.	2cc	-va-	2ff	.
=78	=78	=78	=78	=78	=78	=78	=78
1G	-va-	2.g	.	1b	.	2ee	.
.	.	.	.	.	.	1dd	.
.	.	4f	.	.	.	.	.
1A	.	1e	.	2.a	.	.	.
.	.	.	.	.	.	2cc	.
.	.	.	.	4cc	.	.	.
=79	=79	=79	=79	=79	=79	=79	=79
0D	-rum,	0d	-rum,	1b	.	1dd	-rum,
.	.	.	.	1a	-rum,	1r	.
=80	=80	=80	=80	=80	=80	=80	=80
0r	.	0r	.	1r	.	1.ee	in
.	.	.	.	[1a	in	.	.
.	.	.	.	.	.	2dd	cir-
=81	=81	=81	=81	=81	=81	=81	=81
0r	.	1r	.	2a]	.	2cc	-cu-
.	.	.	.	2g	cir-	2b	-i-
.	.	[1a	in	2f	-cu-	[1a	-tu
.	.	.	.	2e	-i-	.	.
=82	=82	=82	=82	=82	=82	=82	=82
1.d	in	2a]	.	1d	-tu	1a]	.
.	.	2g	cir-	.	.	.	.
.	.	2f	-cu-	1a	men-	[1dd	men-
2c	cir-	2e	-i-	.	.	.	.
=83	=83	=83	=83	=83	=83	=83	=83
2B	-cu-	1d	-tu	1g	-sae	2dd]	.
2A	-it-	.	.	.	.	2cc	.
1G	-tu	[1e	men-	1g	tu-	1b	.
=84	=84	=84	=84	=84	=84	=84	=84
1.A	men-	2e]	.	1c	.	1a	-sae
.	.	2d	-sae	.	.	.	.
.	.	2c	tu-	1e	.	[1cc	tu-
2G	-sae	2B	.	.	.	.	.
=85	=85	=85	=85	=85	=85	=85	=85
2F	tu-	2A	.	2f	.	1cc]	.
2E	.	1c	.	2c	.	.	.
1D	.	.	.	1f	.	1dd	.
.	.	2B	.	.	.	.	.
=86	=86	=86	=86	=86	=86	=86	=86
0C	-ae.	0c	-ae.	[0e	-ae.	1g	-ae.
.	.	.	.	.	.	2r	.
.	.	.	.	.	.	[2g	Ec-
=87	=87	=87	=87	=87	=87	=87	=87
1r	.	1r	.	0e]	.	2g]	.
.	.	.	.	.	.	2g	-ce
1C	Ec-	1c	Ec-	.	.	1g	sic
=88	=88	=88	=88	=88	=88	=88	=88
1F	-ce	4A	-ce	1r	.	1a	be-
.	.	4B	.	.	.	.	.
.	.	4c	.	.	.	.	.
.	.	4d	.	.	.	.	.
2E	sic	2e	.	1c	Ec-	2g	-ne-
2F	be-	2A	sic	.	.	2a	-di-
=89	=89	=89	=89	=89	=89	=89	=89
2E	-ne-	2e	be-	1c	-ce	2g	.
1F	-di-	2.A	-ne-	.	.	2.cc	-ce-
.	.	.	.	1c	sic	.	.
.	.	4B	.	.	.	4dd	.
2E	.	2c	.	.	.	2ee	.
=90	=90	=90	=90	=90	=90	=90	=90
4D	-ce-	2F	-di-	1d	be-	[0a	-tur
4E	.	.	.	.	.	.	.
4F	.	2f	-ce-	.	.	.	.
4G	.	.	.	.	.	.	.
2A	.	2e	.	2c	-ne-	.	.
2D	.	2f	-tur	2d	-di-	.	.
=91	=91	=91	=91	=91	=91	=91	=91
2A	-tur	2e	ho-	2c	.	0a]	.
2.D	ho-	2d	.	2.f	-ce-	.	.
.	.	1A	-mo,	.	.	.	.
4E	.	.	.	4g	.	.	.
2F	.	.	.	2a	.	.	.
=92	=92	=92	=92	=92	=92	=92	=92
0G	-mo,	1r	.	[0d	-tur,	2.b	be-
.	.	.	.	.	.	4a	.
.	.	1G	ec-	.	.	4b	.
.	.	.	.	.	.	4cc	.
.	.	.	.	.	.	2dd	.
=93	=93	=93	=93	=93	=93	=93	=93
0r	.	1G	-ce	0d]	.	2g	-ne-
.	.	.	.	.	.	2.b	-di-
.	.	1G	sic	.	.	.	.
.	.	.	.	.	.	4a	.
.	.	.	.	.	.	4g	-ce-
.	.	.	.	.	.	4f	.
=94	=94	=94	=94	=94	=94	=94	=94
1r	.	1A	be-	0c	.	0e	-tur,
1C	ec-	2G	-ne-	.	.	.	.
.	.	2A	-di-	.	.	.	.
=95	=95	=95	=95	=95	=95	=95	=95
1C	-ce	2G	.	0e	.	1.g	be-
.	.	2.c	-ce-	.	.	.	.
1C	sic	.	.	.	.	.	.
.	.	4d	.	.	.	.	.
.	.	2e	.	.	.	2g	-ne-
=96	=96	=96	=96	=96	=96	=96	=96
1D	be-	[0A	-tur	1d	.	4f	-di-
.	.	.	.	.	.	4g	.
.	.	.	.	.	.	4a	.
.	.	.	.	.	.	4b	.
2C	-ne-	.	.	2r	.	2cc	.
2D	-di-	.	.	2d	be-	2f	.
=97	=97	=97	=97	=97	=97	=97	=97
2C	.	0A]	.	2e	-ne-	2cc	.
2.F	-ce-	.	.	1f	-di-	2.a	-ce-
4G	.	.	.	.	.	4b	.
2A	.	.	.	2e	-ce-	2cc	.
=98	=98	=98	=98	=98	=98	=98	=98
1D	-tur	2r	.	1f	-tur,	0a	-tur
.	.	1d	ho-	.	.	.	.
1A	ho-	.	.	2e	.	.	.
.	.	2c	-mo	[2a	ho-	.	.
=99	=99	=99	=99	=99	=99	=99	=99
2F	-mo	1d	qui	2a]	.	0r	.
2G	qui	.	.	2g	-mo	.	.
4D	.	1f	ti-	1a	qui	.	.
4E	.	.	.	.	.	.	.
4F	.	.	.	.	.	.	.
4G	.	.	.	.	.	.	.
=100	=100	=100	=100	=100	=100	=100	=100
4A	.	2f	-met	1cc	ti-	0r	.
4B	.	.	.	.	.	.	.
2.c	ti-	2.e	Do-	.	.	.	.
.	.	.	.	2cc	-met	.	.
4B	.	4d	.	.	.	.	.
[2G	.	[2d	.	[2b	Do-	.	.
=101	=101	=101	=101	=101	=101	=101	=101
2G]	.	2d]	.	4b]	.	1r	.
.	.	.	.	4a	.	.	.
2A	-met	2c	-mi-	1a	.	.	.
2B	Do-	1d	-num,	.	.	2r	.
2B	-mi-	.	.	2g#i	-mi-	[2dd	ho-
=102	=102	=102	=102	=102	=102	=102	=102
1A	-num,	1r	.	1a	-num,	2dd]	.
.	.	.	.	.	.	2cc	-mo
2r	.	1g	qui	1b	ho-	1dd	qui
2G	qui	.	.	.	.	.	.
=103	=103	=103	=103	=103	=103	=103	=103
2.F	ti-	1a	ti-	2cc	.	1ff	ti-
.	.	.	.	2c	.	.	.
4E	-met	.	.	.	.	.	.
2D	Do-	2f	-met	2d	.	2ff	-met
2C	-mi-	2g	Do-	2e	.	[2ee	Do-
=104	=104	=104	=104	=104	=104	=104	=104
1D	-num.	1d	-mi-	1f	-mo	4ee]	.
.	.	.	.	.	.	4dd	.
.	.	.	.	.	.	1dd	.
1r	.	1e	.	1g	.	.	.
.	.	.	.	.	.	2cc#i	-mi-
=105	=105	=105	=105	=105	=105	=105	=105
1.G	Be-	0d	-num.	2r	.	1dd	-num,
.	.	.	.	1g	qui	.	.
.	.	.	.	.	.	2r	.
2G	-ne-	.	.	4f	.	[2dd	Do-
.	.	.	.	4e	.	.	.
=106	=106	=106	=106	=106	=106	=106	=106
1G	-di-	0r	.	2.d	ti-	2dd]	.
.	.	.	.	.	.	4cc	.
.	.	.	.	4e	.	4b	.
1F	-cat	.	.	4f	.	2a	.
.	.	.	.	4g	.	.	.
.	.	.	.	2a	.	2cc	.
=107	=107	=107	=107	=107	=107	=107	=107
1B-i	ti-	1.d	Be-	2f	-met	[0dd	.
.	.	.	.	1g	Do-	.	.
2G	-bi	.	.	.	.	.	.
[2B-i	Do-	2d	-ne-	2f	-mi-	.	.
=108	=108	=108	=108	=108	=108	=108	=108
4B-]	.	1d	-di-	1g	-num.	1dd]	.
4A	.	.	.	.	.	.	.
4G	.	.	.	.	.	.	.
4F	.	.	.	.	.	.	.
2E	.	1c	-cat	1r	.	1gg	-mi-
2E	-mi-	.	.	.	.	.	.
=109	=109	=109	=109	=109	=109	=109	=109
0D	-nus	1f	ti-	1.a	Be-	0ff	-num.
.	.	2d	-bi	.	.	.	.
.	.	[2f	Do-	2a	-ne-	.	.
=110	=110	=110	=110	=110	=110	=110	=110
1F	ex	4f]	.	1a	-di-	0r	.
.	.	4e	.	.	.	.	.
.	.	4d	.	.	.	.	.
.	.	4c	.	.	.	.	.
1G	Si-	2B	.	1g	-cat	.	.
.	.	2B	-mi-	.	.	.	.
=111	=111	=111	=111	=111	=111	=111	=111
1A	-on,	0A	-nus	1cc	ti-	1.ee	Be-
1r	.	.	.	2a	-bi	.	.
.	.	.	.	[2cc	Do-	2ee	-ne-
=112	=112	=112	=112	=112	=112	=112	=112
0r	.	1c	ex	4cc]	.	1ee	-di-
.	.	.	.	4b	.	.	.
.	.	.	.	4a	.	.	.
.	.	.	.	4g	.	.	.
.	.	1d	Si-	2f	.	1dd	-cat
.	.	.	.	2f	-mi-	.	.
=113	=113	=113	=113	=113	=113	=113	=113
0c	et	1c	-on,	2e	-nus	1gg	ti-
.	.	.	.	2g	ex	.	.
.	.	1r	.	2a	Si-	2ee	-bi
.	.	.	.	4g	.	[2gg	Do-
.	.	.	.	4f	.	.	.
=114	=114	=114	=114	=114	=114	=114	=114
1c	vi-	0r	.	4e	.	4gg]	.
.	.	.	.	4d	.	4ff	.
.	.	.	.	1g	.	4ee	.
.	.	.	.	.	.	4dd	.
1A	-de-	.	.	.	.	2cc	.
.	.	.	.	2f#i	.	2cc	-mi-
=115	=115	=115	=115	=115	=115	=115	=115
1G	-as	0g	et	2g	-on,	2b	-nus
.	.	.	.	2g	et	2b	ex
2r	.	.	.	2b	vi-	1dd	Si-
2G	bo-	.	.	2b	-de-	.	.
=116	=116	=116	=116	=116	=116	=116	=116
2E	-na	1g	vi-	1b	-as	1ee	-on,
2E	Je-	.	.	.	.	.	.
2A	-ru-	1e	-de-	2cc	bo-	2r	.
2A	-sa-	.	.	[2a	-na	2cc	et
=117	=117	=117	=117	=117	=117	=117	=117
1D	-lem,	1d	-as	2a]	.	2dd	vi-
.	.	.	.	2f	Je-	2dd	-de-
2r	.	2r	.	2f	-ru-	2a	-as
2D	bo-	2d	bo-	2f	-sa-	2a	bo-
=118	=118	=118	=118	=118	=118	=118	=118
2E	-na	2B	-na	1e	-lem,	2g	-na
2E	Je-	2B	Je-	.	.	2g	Je-
2C	-ru-	2e	-ru-	1r	.	2g	-ru-
2C	-sa-	2e	-sa-	.	.	2g	-sa-
=119	=119	=119	=119	=119	=119	=119	=119
1D	-lem,	1A	-lem,	2r	.	1f	-lem,
.	.	.	.	2a	bo-	.	.
2r	.	2r	.	2f	-na	2r	.
2F	bo-	2A	bo-	2d	Je-	2a	bo-
=120	=120	=120	=120	=120	=120	=120	=120
2E	-na	2B	-na	2e	-ru-	2g	-na
2D	Je-	2B	Je-	2f	.	2dd	Je-
2E	-ru-	2G	-ru-	2g	.	2b	-ru-
2E	-sa-	2G	-sa-	2g	-sa-	2b	-sa-
=121	=121	=121	=121	=121	=121	=121	=121
0AA	-lem	0A	-lem	[0e	-lem	1.cc	-lem
.	.	.	.	.	.	4b	.
.	.	.	.	.	.	4a	.
=122	=122	=122	=122	=122	=122	=122	=122
1.E	o-	1r	.	0e]	.	[0g	.
.	.	[1B	o-	.	.	.	.
2E	-mni-	.	.	.	.	.	.
=123	=123	=123	=123	=123	=123	=123	=123
2E	-bus	2B]	.	0r	.	1g]	.
2E	di-	2B	-mni-	.	.	.	.
1D	-e-	2B	-bus	.	.	1r	.
.	.	2B	di-	.	.	.	.
=124	=124	=124	=124	=124	=124	=124	=124
1C	-bus	1A	-e-	1.e	o-	1r	.
1r	.	1G	-bus	.	.	[1b	o-
.	.	.	.	2e	-mni-	.	.
=125	=125	=125	=125	=125	=125	=125	=125
0r	.	0r	.	2e	-bus	2b]	.
.	.	.	.	2e	di-	2b	-mni-
.	.	.	.	1d	-e-	2b	-bus
.	.	.	.	.	.	2b	di-
=126	=126	=126	=126	=126	=126	=126	=126
1F	vi-	2r	.	1c	-bus	1a	-e-
.	.	2A	vi-	.	.	.	.
2E	-tae	2e	.	1r	.	2g	-bus
[2A	tu-	2c	-tae	.	.	[2cc	vi-
=127	=127	=127	=127	=127	=127	=127	=127
2A]	.	1f	tu-	2r	.	2cc]	.
2F	.	.	.	1f	vi-	2a	-tae
1B-X	.	2d	.	.	.	2.dd	tu-
.	.	[2g	.	2d	-tae	.	.
.	.	.	.	.	.	4cc	.
=128	=128	=128	=128	=128	=128	=128	=128
2G	.	4g]	.	2.g	tu-	4b	.
.	.	4f	.	.	.	4a	.
1c	.	4e	.	.	.	2.cc	.
.	.	4d	.	4f	.	.	.
.	.	2g	.	4e	.	.	.
.	.	.	.	4d	.	4b	.
2d	.	2f	.	[2f	.	[2a	.
=129	=129	=129	=129	=129	=129	=129	=129
1B	.	1d	.	4f]	.	2a]	.
.	.	.	.	4e	.	.	.
.	.	.	.	1d	.	2g#i	.
1A	.	1e	.	.	.	[1a	-ae.
.	.	.	.	2c#i	.	.	.
=130	=130	=130	=130	=130	=130	=130	=130
1D	-ae.	4f	.	2d	-ae.	1a]	.
.	.	4e	.	.	.	.	.
.	.	4d	.	2d	Et	.	.
.	.	4c	.	.	.	.	.
2r	.	1B	.	2d	vi-	1r	.
2D	Et	.	.	2d	-de-	.	.
=131	=131	=131	=131	=131	=131	=131	=131
2D	vi-	1A	-ae.	1d	-as	2r	.
2D	-de-	.	.	.	.	2a	Et
1D	-as	2r	.	[1f	fi-	2a	vi-
.	.	2A	Et	.	.	2a	-de-
=132	=132	=132	=132	=132	=132	=132	=132
1.F	fi-	2A	vi-	2f]	.	1a	-as
.	.	2A	-de-	2f	-li-	.	.
.	.	1A	-as	1f	-os	[1cc	fi-
2F	-li-	.	.	.	.	.	.
=133	=133	=133	=133	=133	=133	=133	=133
1F	-os	1.c	fi-	1.a	fi-	2cc]	.
.	.	.	.	.	.	2cc	-li-
[1A	fi-	.	.	.	.	1cc	-os
.	.	2c	-li-	2a	-li-	.	.
=134	=134	=134	=134	=134	=134	=134	=134
2A]	.	1c	-os	1cc	-o-	1.ee	fi-
2A	-li-	.	.	.	.	.	.
1c	-o-	1e	fi-	1g	-rum	.	.
.	.	.	.	.	.	2ee	-li-
=135	=135	=135	=135	=135	=135	=135	=135
1G	-rum	2e	-li-	2.g	tu-	1gg	-o-
.	.	2.g	-o-	.	.	.	.
.	.	.	.	4a	.	.	.
2G	tu-	.	.	2b	.	2dd	-rum
.	.	4f	.	.	.	.	.
[2A	-o-	4e	.	2cc	.	2cc	tu-
.	.	4d	.	.	.	.	.
=136	=136	=136	=136	=136	=136	=136	=136
2A]	.	2c	-rum	1a	-o-	2ee	-o-
2F	.	2d	tu-	.	.	2ff	.
1E	.	2d	-o-	2.g	.	1gg	.
.	.	2c	.	.	.	.	.
.	.	.	.	4a	.	.	.
=137	=137	=137	=137	=137	=137	=137	=137
1D	-rum,	1d	-rum,	1b-X	.	1.ff	.
[1d	pa-	[1f	pa-	1a	-rum,	.	.
.	.	.	.	.	.	2dd	.
=138	=138	=138	=138	=138	=138	=138	=138
1d]	.	1f]	.	2r	.	1dd	-rum,
.	.	.	.	1a	pa-	.	.
1d	-cem	1f	-cem	.	.	2r	.
.	.	.	.	2a	-cem	[2dd	pa-
=139	=139	=139	=139	=139	=139	=139	=139
1d	su-	1f	su-	2a	su-	2dd]	.
.	.	.	.	2b	-per	2dd	-cem
1c	-per	1g	-per	2cc	Is-	1ee	su-
.	.	.	.	2cc	-ra-	.	.
=140	=140	=140	=140	=140	=140	=140	=140
1d	Is-	1f	Is-	[0a	-el,	2dd	-per
.	.	.	.	.	.	1ff	Is-
1d	-ra-	2d	.	.	.	.	.
.	.	[2f	.	.	.	4ee	.
.	.	.	.	.	.	4dd	.
=141	=141	=141	=141	=141	=141	=141	=141
0A	-el,	2f]	.	1a]	.	2cc	.
.	.	4e	.	.	.	1dd	.
.	.	4d	.	.	.	.	.
.	.	2e	.	2r	.	.	.
.	.	2e	-ra-	2A	pa-	2cc#i	-ra-
=142	=142	=142	=142	=142	=142	=142	=142
0r	.	2d	-el,	2B	.	[0ddl	-el.
.	.	1g	pa-	2.G	.	.	.
.	.	.	.	4A	.	.	.
.	.	2g	-cem	[2B	.	.	.
=143	=143	=143	=143	=143	=143	=143	=143
0r	.	1g	su-	2B]	.	0dd_	.
.	.	.	.	4A	.	.	.
.	.	.	.	4G	.	.	.
.	.	1f	-per	1d	-cem	.	.
=144	=144	=144	=144	=144	=144	=144	=144
2r	.	1g	Is-	4G	su-	0dd_	.
.	.	.	.	4A	.	.	.
1G	pa-	.	.	4B	.	.	.
.	.	.	.	4c	.	.	.
.	.	1g	-ra-	2d	.	.	.
2G	-cem	.	.	4G	-per	.	.
.	.	.	.	4A	.	.	.
=145	=145	=145	=145	=145	=145	=145	=145
1G	su-	[0dl	-el.	4B	Is-	0dd_	.
.	.	.	.	4c	.	.	.
.	.	.	.	4d	.	.	.
.	.	.	.	4e	.	.	.
1F	-per	.	.	4f	.	.	.
.	.	.	.	4e	.	.	.
.	.	.	.	4d	.	.	.
.	.	.	.	4c	.	.	.
=146	=146	=146	=146	=146	=146	=146	=146
1G	Is-	0d_	.	2B	.	0dd_	.
.	.	.	.	2G	.	.	.
1G	-ra-	.	.	1g	-ra-	.	.
=147	=147	=147	=147	=147	=147	=147	=147
0Dl	-el.	0d]	.	0fl	-el.	0dd]	.
==	==	==	==	==	==	==	==
*-	*-	*-	*-	*-	*-	*-	*-
!!!system-decoration: [*]
!!!RDF**kern: i = editorial accidental
!!!RDF**kern: l = terminal long
!!!PTL: <i> New Senfl Edition: Motets for Four Voices (A-I) </i>
!!!PPR: Hollitzer Verlag
!!!PC#: Denkmäler der Tonkunst in Österreich 163.1
!!!PDT: 2021
!!!PED: Scott Lee Edwards, Stefan Gasch, and Sonja Tröster
!!!YEC: Copyright 2021 Denkmäler der Tonkunst in Österreich
!!!YEM: CC-BY-NC 4.0 (https://creativecommons.org/licenses/by-nc/4.0/legalcode)
!!!EED: Benjamin Ory
!!!EEV: 2023/12/7
!!!verovio: header true
!!!header-left: @{PTL}\n@{PED}, eds.\n@{PC#} (@{PDT})&nbsp;\n
!!!header-right:
!!!header-center:
